X:122
T:Dorsetshire march, The
R:March
O:England
M:4/4
A:Lancashire
B:Winder
K:D
AG |\
F2D>F A2F>A | d2A>d f2d>f | \
a2b>a g>fe>d | c2e2 e2AG | \
F2D>F A2F>A | B>cd>e c2B>A | \
B>cd>g f2e>d | d4 d2::\
fe |\
d2f>d B2d>B | A>Fd>B A>FE>D | \
F>Ad>c B>AG>F | E2E>F E2A>G |\
F2D>F A2F>A | B2g>e d>cB>A | \
B>ba>g f>ed>c | d4 d2 :|**
